X: 9537
T: Dash To Portobello
R: reel
M: 4/4
K: Eminor
FA|:BE E2 EDBA|D2 FE DA A2|BEED EFGA|B2 e^c dBA=c|
BE E2 EDBA|D2 FE DA A2|BEED EFGA|1 BdAF GEEc:|2 BdAF GE E2||
|:g2 eg bgeg|f2 df afdf|g2 eg bgeg|fgaf ge e2|
g3a bgeg|fd d2 Adfd|g3a bgaf|1 gfed Bdef:|2 gfed Be e2||

